public/logos/PN.svg

<?xml version="1.0" encoding="UTF-8"?>
<svg xmlns="http://www.w3.org/2000/svg" xmlns:xlink="http://www.w3.org/1999/xlink" width="176pt" height="29.26pt" viewBox="0 0 176 29.26" version="1.1">
<defs>
<clipPath id="clip1">
  <path d="M 0 14 L 47 14 L 47 29.261719 L 0 29.261719 Z M 0 14 "/>
</clipPath>
</defs>
<g id="surface1">
<g clip-path="url(#clip1)" clip-rule="nonzero">
<path style=" stroke:none;fill-rule:nonzero;fill:rgb(91.235352%,11.169434%,14.260864%);fill-opacity:1;" d="M 46.433594 15.617188 C 45.140625 15.5625 44.011719 15.539062 42.886719 15.457031 C 42.089844 15.398438 41.296875 15.1875 40.5 15.179688 C 39.53125 15.164062 38.558594 15.300781 37.585938 15.351562 C 36.722656 15.398438 35.855469 15.4375 34.992188 15.449219 C 33.839844 15.464844 32.683594 15.453125 31.527344 15.601562 C 33.984375 15.871094 36.460938 15.753906 38.921875 15.941406 C 36.730469 16.421875 34.5 16.011719 32.277344 16.417969 C 30.175781 16.800781 27.929688 16.328125 25.898438 17.421875 C 27.660156 17.234375 29.417969 17.046875 31.175781 16.863281 C 31.1875 16.941406 31.199219 17.023438 31.210938 17.105469 C 30.128906 17.308594 29.046875 17.511719 27.960938 17.714844 C 29.164062 17.800781 30.359375 18.136719 31.53125 17.644531 C 31.585938 17.621094 31.640625 17.589844 31.695312 17.589844 C 35.03125 17.550781 38.355469 16.898438 41.71875 17.460938 C 41.363281 17.496094 41.011719 17.542969 40.65625 17.558594 C 38.234375 17.679688 35.808594 17.722656 33.398438 17.933594 C 31.359375 18.113281 29.335938 18.488281 27.171875 18.792969 C 29.179688 19.324219 31.03125 18.292969 33.277344 18.769531 C 32.453125 18.898438 31.980469 18.972656 31.503906 19.046875 C 31.5 19.101562 31.496094 19.15625 31.496094 19.214844 C 32.355469 19.265625 33.21875 19.316406 34.082031 19.367188 C 34.082031 19.441406 34.082031 19.519531 34.078125 19.59375 C 32.933594 19.628906 31.78125 19.613281 30.640625 19.71875 C 29.445312 19.828125 28.261719 20.046875 27.074219 20.226562 C 25.972656 20.390625 24.878906 20.566406 23.800781 21 C 24.484375 21 25.179688 21.074219 25.847656 20.984375 C 26.976562 20.828125 28.085938 20.476562 29.214844 20.378906 C 31.394531 20.191406 33.582031 20.125 35.765625 20.015625 C 35.988281 20.003906 36.214844 20.039062 36.445312 20.273438 C 35.414062 20.3125 34.375 20.304688 33.347656 20.398438 C 32.273438 20.496094 31.207031 20.691406 30.132812 20.914062 C 32.945312 21.152344 35.78125 20.933594 38.597656 21.375 C 37.28125 21.382812 35.960938 21.304688 34.652344 21.421875 C 31.730469 21.679688 28.78125 21.570312 25.871094 22.066406 C 24.796875 22.25 23.707031 22.359375 22.617188 22.414062 C 19.734375 22.558594 16.941406 23.253906 14.164062 23.925781 C 10.429688 24.832031 6.84375 26.230469 3.328125 27.773438 C 2.246094 28.25 1.25 28.921875 0 29.261719 C 0.410156 28.609375 0.726562 27.867188 1.25 27.320312 C 3.566406 24.890625 5.824219 22.398438 8.660156 20.523438 C 12.488281 17.996094 16.636719 16.347656 21.132812 15.382812 C 24.429688 14.675781 27.714844 14.304688 31.070312 14.359375 C 31.578125 14.367188 32.085938 14.207031 32.597656 14.15625 C 32.9375 14.121094 33.285156 14.121094 33.625 14.152344 C 34.308594 14.210938 34.992188 14.367188 35.671875 14.367188 C 38.503906 14.367188 41.3125 14.511719 44.09375 15.089844 C 44.539062 15.183594 45.027344 15.070312 45.484375 15.148438 C 45.777344 15.195312 46.042969 15.417969 46.433594 15.617188 "/>
</g>
<path style=" stroke:none;fill-rule:nonzero;fill:rgb(91.235352%,11.169434%,14.260864%);fill-opacity:1;" d="M 31.574219 4.867188 C 30.574219 3.914062 29.644531 3.054688 28.742188 2.164062 C 28.3125 1.734375 27.855469 1.359375 27.226562 1.503906 C 26.867188 1.585938 26.421875 1.753906 26.238281 2.03125 C 25.945312 2.476562 26.15625 2.914062 26.71875 3.171875 C 27.066406 2.835938 27.425781 2.488281 27.921875 2.011719 C 28.171875 2.550781 28.621094 3.101562 28.492188 3.3125 C 27.890625 4.308594 28.714844 4.445312 29.242188 4.585938 C 29.996094 4.78125 30.753906 5.253906 31.574219 4.867188 Z M 21.582031 8.144531 C 21.804688 8.1875 22.046875 8.191406 22.246094 8.28125 C 23.507812 8.871094 24.765625 9.011719 26.144531 8.28125 C 25.820312 8.097656 25.554688 7.917969 25.265625 7.796875 C 24.476562 7.460938 23.675781 7.148438 22.882812 6.824219 C 22.722656 6.757812 22.566406 6.6875 22.40625 6.621094 C 21.195312 6.117188 20.636719 6.269531 19.640625 7.371094 C 19.230469 6.695312 19.230469 6.695312 19.261719 5.726562 C 20.234375 5.671875 21.253906 5.5625 21.253906 3.953125 C 20.992188 4.246094 20.875 4.433594 20.707031 4.550781 C 19.980469 5.058594 19.546875 5.015625 19.082031 4.414062 C 18.609375 3.808594 18.632812 2.761719 19.203125 2.378906 C 19.765625 2.003906 20.367188 1.597656 21.105469 2.128906 C 21.566406 2.464844 22.125 2.667969 22.585938 3.003906 C 23.609375 3.75 24.773438 4.167969 26.023438 4.484375 C 25.332031 3.882812 24.644531 3.285156 23.769531 2.519531 C 24.824219 2.085938 25.425781 1.453125 26 0.757812 C 26.894531 -0.324219 28.113281 -0.0195312 29.21875 0.261719 C 30.542969 0.601562 31.835938 1.085938 33.128906 1.53125 C 35.214844 2.25 37.269531 2.074219 39.316406 1.371094 C 39.476562 1.316406 39.632812 1.246094 39.792969 1.199219 C 39.832031 1.1875 39.890625 1.242188 40.078125 1.332031 C 39.175781 2.257812 38.304688 3.152344 37.34375 4.136719 C 39.046875 4.664062 40.691406 5.132812 42.398438 4.917969 C 44.019531 4.714844 45.617188 4.3125 47.269531 3.988281 C 44.574219 6.558594 40.898438 7.359375 37.628906 7.046875 C 36.617188 6.949219 35.617188 6.609375 34.648438 6.269531 C 34.128906 6.085938 33.6875 5.988281 33.15625 6.179688 C 30.484375 7.144531 27.847656 6.777344 25.226562 5.933594 C 25.066406 5.882812 24.914062 5.796875 24.753906 5.738281 C 24.707031 5.722656 24.644531 5.75 24.589844 5.757812 C 25.617188 6.925781 26.804688 7.308594 31.429688 7.925781 C 28.695312 9.367188 26.007812 10.054688 23.09375 9.164062 C 22.511719 8.984375 21.851562 8.824219 21.609375 8.117188 L 21.582031 8.144531 "/>
<path style=" stroke:none;fill-rule:nonzero;fill:rgb(91.235352%,11.169434%,14.260864%);fill-opacity:1;" d="M 44.503906 6.839844 C 42.222656 8.6875 39.527344 9.34375 36.714844 9.8125 C 37.453125 9.847656 38.1875 9.882812 38.921875 9.917969 C 38.921875 9.964844 38.921875 10.015625 38.921875 10.0625 C 37.957031 10.273438 36.988281 10.484375 36.023438 10.695312 C 36.023438 10.757812 36.023438 10.820312 36.023438 10.878906 C 36.972656 10.878906 37.921875 10.878906 38.871094 10.878906 C 38.875 10.964844 38.882812 11.050781 38.886719 11.136719 C 37.71875 11.347656 36.546875 11.5625 35.171875 11.808594 C 35.730469 11.921875 36.117188 12 36.503906 12.078125 C 34.019531 12.554688 31.574219 13.191406 28.707031 12.910156 C 29.867188 11.878906 31.042969 11.320312 31.953125 10.457031 C 32.871094 9.585938 33.71875 8.640625 34.746094 7.574219 C 37.925781 8.558594 41.242188 8.179688 44.503906 6.839844 "/>
<path style=" stroke:none;fill-rule:nonzero;fill:rgb(91.235352%,11.169434%,14.260864%);fill-opacity:1;" d="M 20 9.910156 C 20.199219 9.929688 20.359375 9.898438 20.40625 9.957031 C 21.367188 11.117188 22.523438 11.078125 23.851562 10.699219 C 24.832031 10.417969 25.878906 10.355469 26.902344 10.269531 C 27.1875 10.246094 27.496094 10.488281 27.789062 10.71875 C 26.21875 10.882812 24.839844 11.535156 23.429688 12.085938 C 21.71875 12.753906 20.308594 12.136719 19.890625 10.523438 C 19.84375 10.339844 19.960938 10.109375 20 9.910156 "/>
<path style=" stroke:none;fill-rule:nonzero;fill:rgb(91.235352%,11.169434%,14.260864%);fill-opacity:1;" d="M 36.804688 18.523438 C 35.847656 18.523438 34.890625 18.523438 33.929688 18.523438 C 33.929688 18.464844 33.929688 18.410156 33.929688 18.351562 C 34.875 18.351562 35.820312 18.351562 36.765625 18.351562 C 36.78125 18.410156 36.792969 18.464844 36.804688 18.523438 "/>
<path style=" stroke:none;fill-rule:nonzero;fill:rgb(91.235352%,11.169434%,14.260864%);fill-opacity:1;" d="M 21.609375 8.117188 C 21.519531 8.066406 21.425781 8.015625 21.335938 7.96875 C 21.417969 8.027344 21.5 8.085938 21.582031 8.144531 L 21.609375 8.117188 "/>
<path style=" stroke:none;fill-rule:nonzero;fill:rgb(91.235352%,11.169434%,14.260864%);fill-opacity:1;" d="M 55.710938 23.496094 L 56.789062 2.417969 L 60.449219 2.417969 L 59.644531 13.269531 C 59.425781 15.898438 59.183594 17.835938 58.964844 19.492188 L 59.027344 19.492188 C 59.847656 17.742188 60.644531 15.929688 61.949219 13.363281 L 67.703125 2.417969 L 71.671875 2.417969 L 70.828125 13.050781 C 70.613281 15.679688 70.394531 17.648438 70.136719 19.398438 L 70.199219 19.398438 C 71.074219 17.398438 71.953125 15.398438 72.996094 13.269531 L 78.550781 2.417969 L 82.398438 2.417969 L 70.90625 23.496094 L 66.96875 23.496094 L 67.613281 13.332031 C 67.78125 10.894531 67.972656 9.175781 68.355469 6.765625 L 68.261719 6.765625 C 67.339844 8.921875 66.496094 10.894531 65.3125 13.175781 L 59.710938 23.496094 L 55.710938 23.496094 "/>
<path style=" stroke:none;fill-rule:nonzero;fill:rgb(91.235352%,11.169434%,14.260864%);fill-opacity:1;" d="M 92.988281 14.113281 L 85.421875 14.113281 L 83.644531 20.398438 L 92.148438 20.398438 L 91.261719 23.496094 L 79.097656 23.496094 L 85.085938 2.417969 L 96.78125 2.417969 L 95.894531 5.515625 L 87.859375 5.515625 L 86.273438 11.050781 L 93.871094 11.050781 L 92.988281 14.113281 "/>
<path style=" stroke:none;fill-rule:nonzero;fill:rgb(91.235352%,11.169434%,14.260864%);fill-opacity:1;" d="M 95.65625 19.335938 C 96.769531 20.117188 98.4375 20.679688 100.28125 20.679688 C 102.3125 20.679688 104.292969 19.585938 104.484375 17.554688 C 104.613281 16.179688 103.796875 15.242188 101.835938 14.144531 C 99.519531 12.832031 97.835938 11.144531 98.070312 8.640625 C 98.449219 4.609375 102.191406 2.074219 106.445312 2.074219 C 108.789062 2.074219 110.265625 2.667969 111.035156 3.140625 L 109.558594 6.171875 C 108.90625 5.796875 107.554688 5.203125 105.832031 5.234375 C 103.519531 5.234375 102.078125 6.578125 101.945312 7.984375 C 101.8125 9.425781 102.921875 10.269531 104.785156 11.394531 C 107.222656 12.738281 108.59375 14.425781 108.351562 16.992188 C 107.953125 21.210938 104.300781 23.808594 99.582031 23.808594 C 97.015625 23.808594 94.988281 23.089844 94.121094 22.339844 L 95.65625 19.335938 "/>
<path style=" stroke:none;fill-rule:nonzero;fill:rgb(91.235352%,11.169434%,14.260864%);fill-opacity:1;" d="M 118.773438 5.609375 L 112.925781 5.609375 L 113.851562 2.417969 L 129.207031 2.417969 L 128.28125 5.609375 L 122.402344 5.609375 L 117.339844 23.496094 L 113.679688 23.496094 L 118.773438 5.609375 "/>
<path style=" stroke:none;fill-rule:nonzero;fill:rgb(91.235352%,11.169434%,14.260864%);fill-opacity:1;" d="M 143.746094 14.675781 L 143.648438 9.425781 C 143.660156 8.296875 143.6875 6.671875 143.710938 5.421875 L 143.648438 5.421875 C 142.96875 6.671875 142.265625 8.171875 141.550781 9.425781 L 138.492188 14.675781 Z M 137.070312 17.492188 L 133.628906 23.496094 L 129.75 23.496094 L 142.304688 2.417969 L 146.871094 2.417969 L 147.542969 23.496094 L 143.726562 23.496094 L 143.699219 17.492188 L 137.070312 17.492188 "/>
<path style=" stroke:none;fill-rule:nonzero;fill:rgb(91.235352%,11.169434%,14.260864%);fill-opacity:1;" d="M 159.597656 2.417969 L 153.609375 23.496094 L 149.949219 23.496094 L 155.9375 2.417969 L 159.597656 2.417969 "/>
<path style=" stroke:none;fill-rule:nonzero;fill:rgb(91.235352%,11.169434%,14.260864%);fill-opacity:1;" d="M 164.914062 12.019531 L 166.980469 12.019531 C 169.824219 12.019531 171.898438 10.269531 172.113281 7.984375 C 172.292969 6.046875 170.84375 5.171875 168.78125 5.171875 C 167.875 5.171875 167.273438 5.234375 166.824219 5.359375 Z M 163.941406 2.765625 C 165.316406 2.449219 167.304688 2.261719 169.179688 2.261719 C 171.214844 2.261719 173.113281 2.667969 174.335938 3.640625 C 175.445312 4.453125 176.140625 5.734375 175.976562 7.453125 C 175.683594 10.550781 173.296875 12.675781 170.53125 13.488281 L 170.488281 13.582031 C 171.816406 14.113281 172.269531 15.585938 172.269531 17.585938 C 172.273438 20.210938 172.199219 22.652344 172.464844 23.496094 L 168.710938 23.496094 C 168.601562 22.996094 168.570312 20.992188 168.621094 18.460938 C 168.71875 15.773438 167.84375 14.800781 165.902344 14.800781 L 164.121094 14.800781 L 161.644531 23.496094 L 158.046875 23.496094 L 163.941406 2.765625 "/>
</g>
</svg>

<svg xmlns="http://www.w3.org/2000/svg" width="176pt" height="39.013" viewBox="0 0 176 29.26"><defs><clipPath id="a"><path d="M0 14h47v15.262H0Zm0 0"/></clipPath></defs><g clip-path="url(#a)"><path d="M46.434 15.617c-1.293-.055-2.422-.078-3.547-.16-.797-.059-1.59-.27-2.387-.277-.969-.016-1.941.12-2.914.172-.863.046-1.73.085-2.594.097-1.152.016-2.308.004-3.465.153 2.457.27 4.934.152 7.395.34-2.192.48-4.422.07-6.645.476-2.101.383-4.347-.09-6.379 1.004q2.642-.282 5.278-.559l.035.242-3.25.61c1.203.086 2.398.422 3.57-.07.055-.024.11-.055.164-.055 3.336-.04 6.66-.692 10.024-.13-.356.036-.707.083-1.063.099-2.422.12-4.847.164-7.258.375-2.039.18-4.062.554-6.226.859 2.008.531 3.86-.5 6.105-.023l-1.773.277q-.007.082-.008.168l2.586.152c0 .074 0 .153-.004.227-1.144.035-2.297.02-3.437.125-1.196.11-2.38.328-3.567.508-1.101.164-2.195.34-3.273.773.683 0 1.379.074 2.047-.016 1.129-.156 2.238-.507 3.367-.605 2.18-.188 4.367-.254 6.55-.363a.81.81 0 0 1 .68.257c-1.03.04-2.07.032-3.097.125-1.075.098-2.141.293-3.215.516 2.812.238 5.648.02 8.465.461-1.317.008-2.637-.07-3.946.047-2.922.258-5.87.148-8.78.644a28 28 0 0 1-3.255.348c-2.883.145-5.676.84-8.453 1.512-3.734.906-7.32 2.304-10.836 3.847C2.246 28.25 1.25 28.922 0 29.262c.41-.653.727-1.395 1.25-1.942 2.316-2.43 4.574-4.922 7.41-6.797 3.828-2.527 7.977-4.175 12.473-5.14 3.297-.707 6.582-1.078 9.937-1.024.508.008 1.016-.152 1.528-.203a5.3 5.3 0 0 1 1.027-.004c.684.059 1.367.215 2.047.215 2.832 0 5.64.145 8.422.723.445.094.933-.02 1.39.058.293.047.559.27.95.47" style="stroke:none;fill-rule:nonzero;fill:#e91c24;fill-opacity:1"/></g><path d="M31.574 4.867c-1-.953-1.93-1.812-2.832-2.703-.43-.43-.887-.805-1.515-.66-.36.082-.805.25-.989.527-.293.446-.082.883.48 1.14l1.204-1.16c.25.54.7 1.09.57 1.301-.601.997.223 1.133.75 1.274.754.195 1.512.668 2.332.281m-9.992 3.278c.223.043.465.046.664.136 1.262.59 2.52.73 3.899 0-.325-.183-.59-.363-.88-.484-.788-.336-1.59-.649-2.382-.973q-.238-.1-.477-.203c-1.21-.504-1.77-.351-2.765.75-.41-.676-.41-.676-.38-1.644.973-.055 1.993-.165 1.993-1.774-.262.293-.379.48-.547.598-.727.508-1.16.465-1.625-.137-.473-.605-.45-1.652.121-2.035.563-.375 1.164-.781 1.902-.25.461.336 1.02.539 1.48.875 1.024.746 2.188 1.164 3.438 1.48-.691-.601-1.378-1.199-2.253-1.964 1.054-.434 1.656-1.067 2.23-1.762.895-1.082 2.113-.778 3.219-.496 1.324.34 2.617.824 3.91 1.27 2.086.718 4.14.542 6.187-.16.16-.056.317-.126.477-.173.039-.012.098.043.285.133l-2.734 2.805c1.703.527 3.347.996 5.054.781 1.622-.203 3.22-.606 4.872-.93-2.696 2.57-6.372 3.371-9.641 3.059-1.012-.098-2.012-.438-2.98-.777-.52-.184-.962-.282-1.493-.09-2.672.965-5.308.597-7.93-.246-.16-.051-.312-.137-.472-.196-.047-.015-.11.012-.164.02 1.027 1.168 2.215 1.55 6.84 2.168-2.735 1.441-5.422 2.129-8.336 1.238-.582-.18-1.242-.34-1.485-1.047z" style="stroke:none;fill-rule:nonzero;fill:#e91c24;fill-opacity:1"/><path d="M44.504 6.84c-2.281 1.848-4.977 2.504-7.79 2.973l2.208.105v.145l-2.899.632v.184h2.848c.004.086.012.172.016.258-1.168.21-2.34.425-3.715.672l1.332.27c-2.484.476-4.93 1.112-7.797.831 1.16-1.031 2.336-1.59 3.246-2.453.918-.871 1.766-1.816 2.793-2.883 3.18.985 6.496.606 9.758-.734M20 9.91c.2.02.36-.012.406.047.961 1.16 2.117 1.121 3.446.742.98-.281 2.027-.344 3.05-.43.285-.023.594.22.887.45-1.57.164-2.95.816-4.36 1.367-1.71.668-3.12.05-3.538-1.563-.047-.183.07-.414.109-.613M36.805 18.523H33.93v-.171h2.836q.022.085.039.171M21.61 8.117a9 9 0 0 0-.274-.148l.246.176zM55.71 23.496l1.08-21.078h3.66l-.805 10.852a122 122 0 0 1-.68 6.222h.062c.82-1.75 1.618-3.562 2.922-6.129l5.754-10.945h3.969l-.844 10.633c-.215 2.629-.433 4.597-.691 6.347h.062c.875-2 1.754-4 2.797-6.128l5.555-10.852h3.847L70.906 23.496H66.97l.644-10.164c.168-2.437.36-4.156.742-6.566h-.093c-.922 2.156-1.766 4.129-2.95 6.41l-5.601 10.32zM92.988 14.113h-7.566l-1.777 6.285h8.503l-.886 3.098H79.098l5.988-21.078H96.78l-.886 3.098h-8.036l-1.586 5.535h7.598zM95.656 19.336c1.114.781 2.781 1.344 4.625 1.344 2.031 0 4.012-1.094 4.203-3.125.13-1.375-.687-2.313-2.648-3.41-2.316-1.313-4-3-3.766-5.504.38-4.032 4.121-6.567 8.375-6.567 2.344 0 3.82.594 4.59 1.067l-1.476 3.03a7.4 7.4 0 0 0-3.727-.937c-2.312 0-3.754 1.344-3.887 2.75-.132 1.442.977 2.286 2.84 3.41 2.438 1.344 3.809 3.032 3.567 5.598-.399 4.219-4.051 6.817-8.77 6.817-2.566 0-4.594-.72-5.46-1.47zM118.773 5.61h-5.847l.926-3.192h15.355l-.926 3.191h-5.879l-5.062 17.887h-3.66zM143.746 14.676l-.098-5.25c.012-1.13.04-2.754.063-4.004h-.063c-.68 1.25-1.382 2.75-2.097 4.004l-3.059 5.25Zm-6.676 2.816-3.441 6.004h-3.879l12.555-21.078h4.566l.672 21.078h-3.816l-.028-6.004zM159.598 2.418l-5.989 21.078h-3.66l5.988-21.078zM164.914 12.02h2.066c2.844 0 4.918-1.75 5.133-4.036.18-1.937-1.27-2.812-3.332-2.812-.906 0-1.508.062-1.957.187Zm-.973-9.254c1.375-.317 3.364-.504 5.239-.504 2.035 0 3.933.406 5.156 1.379 1.11.812 1.805 2.093 1.64 3.812-.292 3.098-2.68 5.223-5.445 6.035l-.043.094c1.328.531 1.782 2.004 1.782 4.004.003 2.625-.07 5.066.195 5.91h-3.754c-.11-.5-.14-2.504-.09-5.035.098-2.688-.777-3.66-2.719-3.66h-1.78l-2.477 8.695h-3.598z" style="stroke:none;fill-rule:nonzero;fill:#e91c24;fill-opacity:1"/></svg>
